renderer/presets/luts/bw.cube
TITLE "bw"
LUT_3D_SIZE 9
DOMAIN_MIN 0.0 0.0 0.0
DOMAIN_MAX 1.0 1.0 1.0
0.000000 0.000000 0.000000
0.026575 0.026575 0.026575
0.053150 0.053150 0.053150
0.079725 0.079725 0.079725
0.106300 0.106300 0.106300
0.132875 0.132875 0.132875
0.159450 0.159450 0.159450
0.186025 0.186025 0.186025
0.212600 0.212600 0.212600
0.089400 0.089400 0.089400
0.115975 0.115975 0.115975
0.142550 0.142550 0.142550
0.169125 0.169125 0.169125
0.195700 0.195700 0.195700
0.222275 0.222275 0.222275
0.248850 0.248850 0.248850
0.275425 0.275425 0.275425
0.302000 0.302000 0.302000
0.178800 0.178800 0.178800
0.205375 0.205375 0.205375
0.231950 0.231950 0.231950
0.258525 0.258525 0.258525
0.285100 0.285100 0.285100
0.311675 0.311675 0.311675
0.338250 0.338250 0.338250
0.364825 0.364825 0.364825
0.391400 0.391400 0.391400
0.268200 0.268200 0.268200
0.294775 0.294775 0.294775
0.321350 0.321350 0.321350
0.347925 0.347925 0.347925
0.374500 0.374500 0.374500
0.401075 0.401075 0.401075
0.427650 0.427650 0.427650
0.454225 0.454225 0.454225
0.480800 0.480800 0.480800
0.357600 0.357600 0.357600
0.384175 0.384175 0.384175
0.410750 0.410750 0.410750
0.437325 0.437325 0.437325
0.463900 0.463900 0.463900
0.490475 0.490475 0.490475
0.517050 0.517050 0.517050
0.543625 0.543625 0.543625
0.570200 0.570200 0.570200
0.447000 0.447000 0.447000
0.473575 0.473575 0.473575
0.500150 0.500150 0.500150
0.526725 0.526725 0.526725
0.553300 0.553300 0.553300
0.579875 0.579875 0.579875
0.606450 0.606450 0.606450
0.633025 0.633025 0.633025
0.659600 0.659600 0.659600
0.536400 0.536400 0.536400
0.562975 0.562975 0.562975
0.589550 0.589550 0.589550
0.616125 0.616125 0.616125
0.642700 0.642700 0.642700
0.669275 0.669275 0.669275
0.695850 0.695850 0.695850
0.722425 0.722425 0.722425
0.749000 0.749000 0.749000
0.625800 0.625800 0.625800
0.652375 0.652375 0.652375
0.678950 0.678950 0.678950
0.705525 0.705525 0.705525
0.732100 0.732100 0.732100
0.758675 0.758675 0.758675
0.785250 0.785250 0.785250
0.811825 0.811825 0.811825
0.838400 0.838400 0.838400
0.715200 0.715200 0.715200
0.741775 0.741775 0.741775
0.768350 0.768350 0.768350
0.794925 0.794925 0.794925
0.821500 0.821500 0.821500
0.848075 0.848075 0.848075
0.874650 0.874650 0.874650
0.901225 0.901225 0.901225
0.927800 0.927800 0.927800
0.009025 0.009025 0.009025
0.035600 0.035600 0.035600
0.062175 0.062175 0.062175
0.088750 0.088750 0.088750
0.115325 0.115325 0.115325
0.141900 0.141900 0.141900
0.168475 0.168475 0.168475
0.195050 0.195050 0.195050
0.221625 0.221625 0.221625
0.098425 0.098425 0.098425
0.125000 0.125000 0.125000
0.151575 0.151575 0.151575
0.178150 0.178150 0.178150
0.204725 0.204725 0.204725
0.231300 0.231300 0.231300
0.257875 0.257875 0.257875
0.284450 0.284450 0.284450
0.311025 0.311025 0.311025
0.187825 0.187825 0.187825
0.214400 0.214400 0.214400
0.240975 0.240975 0.240975
0.267550 0.267550 0.267550
0.294125 0.294125 0.294125
0.320700 0.320700 0.320700
0.347275 0.347275 0.347275
0.373850 0.373850 0.373850
0.400425 0.400425 0.400425
0.277225 0.277225 0.277225
0.303800 0.303800 0.303800
0.330375 0.330375 0.330375
0.356950 0.356950 0.356950
0.383525 0.383525 0.383525
0.410100 0.410100 0.410100
0.436675 0.436675 0.436675
0.463250 0.463250 0.463250
0.489825 0.489825 0.489825
0.366625 0.366625 0.366625
0.393200 0.393200 0.393200
0.419775 0.419775 0.419775
0.446350 0.446350 0.446350
0.472925 0.472925 0.472925
0.499500 0.499500 0.499500
0.526075 0.526075 0.526075
0.552650 0.552650 0.552650
0.579225 0.579225 0.579225
0.456025 0.456025 0.456025
0.482600 0.482600 0.482600
0.509175 0.509175 0.509175
0.535750 0.535750 0.535750
0.562325 0.562325 0.562325
0.588900 0.588900 0.588900
0.615475 0.615475 0.615475
0.642050 0.642050 0.642050
0.668625 0.668625 0.668625
0.545425 0.545425 0.545425
0.572000 0.572000 0.572000
0.598575 0.598575 0.598575
0.625150 0.625150 0.625150
0.651725 0.651725 0.651725
0.678300 0.678300 0.678300
0.704875 0.704875 0.704875
0.731450 0.731450 0.731450
0.758025 0.758025 0.758025
0.634825 0.634825 0.634825
0.661400 0.661400 0.661400
0.687975 0.687975 0.687975
0.714550 0.714550 0.714550
0.741125 0.741125 0.741125
0.767700 0.767700 0.767700
0.794275 0.794275 0.794275
0.820850 0.820850 0.820850
0.847425 0.847425 0.847425
0.724225 0.724225 0.724225
0.750800 0.750800 0.750800
0.777375 0.777375 0.777375
0.803950 0.803950 0.803950
0.830525 0.830525 0.830525
0.857100 0.857100 0.857100
0.883675 0.883675 0.883675
0.910250 0.910250 0.910250
0.936825 0.936825 0.936825
0.018050 0.018050 0.018050
0.044625 0.044625 0.044625
0.071200 0.071200 0.071200
0.097775 0.097775 0.097775
0.124350 0.124350 0.124350
0.150925 0.150925 0.150925
0.177500 0.177500 0.177500
0.204075 0.204075 0.204075
0.230650 0.230650 0.230650
0.107450 0.107450 0.107450
0.134025 0.134025 0.134025
0.160600 0.160600 0.160600
0.187175 0.187175 0.187175
0.213750 0.213750 0.213750
0.240325 0.240325 0.240325
0.266900 0.266900 0.266900
0.293475 0.293475 0.293475
0.320050 0.320050 0.320050
0.196850 0.196850 0.196850
0.223425 0.223425 0.223425
0.250000 0.250000 0.250000
0.276575 0.276575 0.276575
0.303150 0.303150 0.303150
0.329725 0.329725 0.329725
0.356300 0.356300 0.356300
0.382875 0.382875 0.382875
0.409450 0.409450 0.409450
0.286250 0.286250 0.286250
0.312825 0.312825 0.312825
0.339400 0.339400 0.339400
0.365975 0.365975 0.365975
0.392550 0.392550 0.392550
0.419125 0.419125 0.419125
0.445700 0.445700 0.445700
0.472275 0.472275 0.472275
0.498850 0.498850 0.498850
0.375650 0.375650 0.375650
0.402225 0.402225 0.402225
0.428800 0.428800 0.428800
0.455375 0.455375 0.455375
0.481950 0.481950 0.481950
0.508525 0.508525 0.508525
0.535100 0.535100 0.535100
0.561675 0.561675 0.561675
0.588250 0.588250 0.588250
0.465050 0.465050 0.465050
0.491625 0.491625 0.491625
0.518200 0.518200 0.518200
0.544775 0.544775 0.544775
0.571350 0.571350 0.571350
0.597925 0.597925 0.597925
0.624500 0.624500 0.624500
0.651075 0.651075 0.651075
0.677650 0.677650 0.677650
0.554450 0.554450 0.554450
0.581025 0.581025 0.581025
0.607600 0.607600 0.607600
0.634175 0.634175 0.634175
0.660750 0.660750 0.660750
0.687325 0.687325 0.687325
0.713900 0.713900 0.713900
0.740475 0.740475 0.740475
0.767050 0.767050 0.767050
0.643850 0.643850 0.643850
0.670425 0.670425 0.670425
0.697000 0.697000 0.697000
0.723575 0.723575 0.723575
0.750150 0.750150 0.750150
0.776725 0.776725 0.776725
0.803300 0.803300 0.803300
0.829875 0.829875 0.829875
0.856450 0.856450 0.856450
0.733250 0.733250 0.733250
0.759825 0.759825 0.759825
0.786400 0.786400 0.786400
0.812975 0.812975 0.812975
0.839550 0.839550 0.839550
0.866125 0.866125 0.866125
0.892700 0.892700 0.892700
0.919275 0.919275 0.919275
0.945850 0.945850 0.945850
0.027075 0.027075 0.027075
0.053650 0.053650 0.053650
0.080225 0.080225 0.080225
0.106800 0.106800 0.106800
0.133375 0.133375 0.133375
0.159950 0.159950 0.159950
0.186525 0.186525 0.186525
0.213100 0.213100 0.213100
0.239675 0.239675 0.239675
0.116475 0.116475 0.116475
0.143050 0.143050 0.143050
0.169625 0.169625 0.169625
0.196200 0.196200 0.196200
0.222775 0.222775 0.222775
0.249350 0.249350 0.249350
0.275925 0.275925 0.275925
0.302500 0.302500 0.302500
0.329075 0.329075 0.329075
0.205875 0.205875 0.205875
0.232450 0.232450 0.232450
0.259025 0.259025 0.259025
0.285600 0.285600 0.285600
0.312175 0.312175 0.312175
0.338750 0.338750 0.338750
0.365325 0.365325 0.365325
0.391900 0.391900 0.391900
0.418475 0.418475 0.418475
0.295275 0.295275 0.295275
0.321850 0.321850 0.321850
0.348425 0.348425 0.348425
0.375000 0.375000 0.375000
0.401575 0.401575 0.401575
0.428150 0.428150 0.428150
0.454725 0.454725 0.454725
0.481300 0.481300 0.481300
0.507875 0.507875 0.507875
0.384675 0.384675 0.384675
0.411250 0.411250 0.411250
0.437825 0.437825 0.437825
0.464400 0.464400 0.464400
0.490975 0.490975 0.490975
0.517550 0.517550 0.517550
0.544125 0.544125 0.544125
0.570700 0.570700 0.570700
0.597275 0.597275 0.597275
0.474075 0.474075 0.474075
0.500650 0.500650 0.500650
0.527225 0.527225 0.527225
0.553800 0.553800 0.553800
0.580375 0.580375 0.580375
0.606950 0.606950 0.606950
0.633525 0.633525 0.633525
0.660100 0.660100 0.660100
0.686675 0.686675 0.686675
0.563475 0.563475 0.563475
0.590050 0.590050 0.590050
0.616625 0.616625 0.616625
0.643200 0.643200 0.643200
0.669775 0.669775 0.669775
0.696350 0.696350 0.696350
0.722925 0.722925 0.722925
0.749500 0.749500 0.749500
0.776075 0.776075 0.776075
0.652875 0.652875 0.652875
0.679450 0.679450 0.679450
0.706025 0.706025 0.706025
0.732600 0.732600 0.732600
0.759175 0.759175 0.759175
0.785750 0.785750 0.785750
0.812325 0.812325 0.812325
0.838900 0.838900 0.838900
0.865475 0.865475 0.865475
0.742275 0.742275 0.742275
0.768850 0.768850 0.768850
0.795425 0.795425 0.795425
0.822000 0.822000 0.822000
0.848575 0.848575 0.848575
0.875150 0.875150 0.875150
0.901725 0.901725 0.901725
0.928300 0.928300 0.928300
0.954875 0.954875 0.954875
0.036100 0.036100 0.036100
0.062675 0.062675 0.062675
0.089250 0.089250 0.089250
0.115825 0.115825 0.115825
0.142400 0.142400 0.142400
0.168975 0.168975 0.168975
0.195550 0.195550 0.195550
0.222125 0.222125 0.222125
0.248700 0.248700 0.248700
0.125500 0.125500 0.125500
0.152075 0.152075 0.152075
0.178650 0.178650 0.178650
0.205225 0.205225 0.205225
0.231800 0.231800 0.231800
0.258375 0.258375 0.258375
0.284950 0.284950 0.284950
0.311525 0.311525 0.311525
0.338100 0.338100 0.338100
0.214900 0.214900 0.214900
0.241475 0.241475 0.241475
0.268050 0.268050 0.268050
0.294625 0.294625 0.294625
0.321200 0.321200 0.321200
0.347775 0.347775 0.347775
0.374350 0.374350 0.374350
0.400925 0.400925 0.400925
0.427500 0.427500 0.427500
0.304300 0.304300 0.304300
0.330875 0.330875 0.330875
0.357450 0.357450 0.357450
0.384025 0.384025 0.384025
0.410600 0.410600 0.410600
0.437175 0.437175 0.437175
0.463750 0.463750 0.463750
0.490325 0.490325 0.490325
0.516900 0.516900 0.516900
0.393700 0.393700 0.393700
0.420275 0.420275 0.420275
0.446850 0.446850 0.446850
0.473425 0.473425 0.473425
0.500000 0.500000 0.500000
0.526575 0.526575 0.526575
0.553150 0.553150 0.553150
0.579725 0.579725 0.579725
0.606300 0.606300 0.606300
0.483100 0.483100 0.483100
0.509675 0.509675 0.509675
0.536250 0.536250 0.536250
0.562825 0.562825 0.562825
0.589400 0.589400 0.589400
0.615975 0.615975 0.615975
0.642550 0.642550 0.642550
0.669125 0.669125 0.669125
0.695700 0.695700 0.695700
0.572500 0.572500 0.572500
0.599075 0.599075 0.599075
0.625650 0.625650 0.625650
0.652225 0.652225 0.652225
0.678800 0.678800 0.678800
0.705375 0.705375 0.705375
0.731950 0.731950 0.731950
0.758525 0.758525 0.758525
0.785100 0.785100 0.785100
0.661900 0.661900 0.661900
0.688475 0.688475 0.688475
0.715050 0.715050 0.715050
0.741625 0.741625 0.741625
0.768200 0.768200 0.768200
0.794775 0.794775 0.794775
0.821350 0.821350 0.821350
0.847925 0.847925 0.847925
0.874500 0.874500 0.874500
0.751300 0.751300 0.751300
0.777875 0.777875 0.777875
0.804450 0.804450 0.804450
0.831025 0.831025 0.831025
0.857600 0.857600 0.857600
0.884175 0.884175 0.884175
0.910750 0.910750 0.910750
0.937325 0.937325 0.937325
0.963900 0.963900 0.963900
0.045125 0.045125 0.045125
0.071700 0.071700 0.071700
0.098275 0.098275 0.098275
0.124850 0.124850 0.124850
0.151425 0.151425 0.151425
0.178000 0.178000 0.178000
0.204575 0.204575 0.204575
0.231150 0.231150 0.231150
0.257725 0.257725 0.257725
0.134525 0.134525 0.134525
0.161100 0.161100 0.161100
0.187675 0.187675 0.187675
0.214250 0.214250 0.214250
0.240825 0.240825 0.240825
0.267400 0.267400 0.267400
0.293975 0.293975 0.293975
0.320550 0.320550 0.320550
0.347125 0.347125 0.347125
0.223925 0.223925 0.223925
0.250500 0.250500 0.250500
0.277075 0.277075 0.277075
0.303650 0.303650 0.303650
0.330225 0.330225 0.330225
0.356800 0.356800 0.356800
0.383375 0.383375 0.383375
0.409950 0.409950 0.409950
0.436525 0.436525 0.436525
0.313325 0.313325 0.313325
0.339900 0.339900 0.339900
0.366475 0.366475 0.366475
0.393050 0.393050 0.393050
0.419625 0.419625 0.419625
0.446200 0.446200 0.446200
0.472775 0.472775 0.472775
0.499350 0.499350 0.499350
0.525925 0.525925 0.525925
0.402725 0.402725 0.402725
0.429300 0.429300 0.429300
0.455875 0.455875 0.455875
0.482450 0.482450 0.482450
0.509025 0.509025 0.509025
0.535600 0.535600 0.535600
0.562175 0.562175 0.562175
0.588750 0.588750 0.588750
0.615325 0.615325 0.615325
0.492125 0.492125 0.492125
0.518700 0.518700 0.518700
0.545275 0.545275 0.545275
0.571850 0.571850 0.571850
0.598425 0.598425 0.598425
0.625000 0.625000 0.625000
0.651575 0.651575 0.651575
0.678150 0.678150 0.678150
0.704725 0.704725 0.704725
0.581525 0.581525 0.581525
0.608100 0.608100 0.608100
0.634675 0.634675 0.634675
0.661250 0.661250 0.661250
0.687825 0.687825 0.687825
0.714400 0.714400 0.714400
0.740975 0.740975 0.740975
0.767550 0.767550 0.767550
0.794125 0.794125 0.794125
0.670925 0.670925 0.670925
0.697500 0.697500 0.697500
0.724075 0.724075 0.724075
0.750650 0.750650 0.750650
0.777225 0.777225 0.777225
0.803800 0.803800 0.803800
0.830375 0.830375 0.830375
0.856950 0.856950 0.856950
0.883525 0.883525 0.883525
0.760325 0.760325 0.760325
0.786900 0.786900 0.786900
0.813475 0.813475 0.813475
0.840050 0.840050 0.840050
0.866625 0.866625 0.866625
0.893200 0.893200 0.893200
0.919775 0.919775 0.919775
0.946350 0.946350 0.946350
0.972925 0.972925 0.972925
0.054150 0.054150 0.054150
0.080725 0.080725 0.080725
0.107300 0.107300 0.107300
0.133875 0.133875 0.133875
0.160450 0.160450 0.160450
0.187025 0.187025 0.187025
0.213600 0.213600 0.213600
0.240175 0.240175 0.240175
0.266750 0.266750 0.266750
0.143550 0.143550 0.143550
0.170125 0.170125 0.170125
0.196700 0.196700 0.196700
0.223275 0.223275 0.223275
0.249850 0.249850 0.249850
0.276425 0.276425 0.276425
0.303000 0.303000 0.303000
0.329575 0.329575 0.329575
0.356150 0.356150 0.356150
0.232950 0.232950 0.232950
0.259525 0.259525 0.259525
0.286100 0.286100 0.286100
0.312675 0.312675 0.312675
0.339250 0.339250 0.339250
0.365825 0.365825 0.365825
0.392400 0.392400 0.392400
0.418975 0.418975 0.418975
0.445550 0.445550 0.445550
0.322350 0.322350 0.322350
0.348925 0.348925 0.348925
0.375500 0.375500 0.375500
0.402075 0.402075 0.402075
0.428650 0.428650 0.428650
0.455225 0.455225 0.455225
0.481800 0.481800 0.481800
0.508375 0.508375 0.508375
0.534950 0.534950 0.534950
0.411750 0.411750 0.411750
0.438325 0.438325 0.438325
0.464900 0.464900 0.464900
0.491475 0.491475 0.491475
0.518050 0.518050 0.518050
0.544625 0.544625 0.544625
0.571200 0.571200 0.571200
0.597775 0.597775 0.597775
0.624350 0.624350 0.624350
0.501150 0.501150 0.501150
0.527725 0.527725 0.527725
0.554300 0.554300 0.554300
0.580875 0.580875 0.580875
0.607450 0.607450 0.607450
0.634025 0.634025 0.634025
0.660600 0.660600 0.660600
0.687175 0.687175 0.687175
0.713750 0.713750 0.713750
0.590550 0.590550 0.590550
0.617125 0.617125 0.617125
0.643700 0.643700 0.643700
0.670275 0.670275 0.670275
0.696850 0.696850 0.696850
0.723425 0.723425 0.723425
0.750000 0.750000 0.750000
0.776575 0.776575 0.776575
0.803150 0.803150 0.803150
0.679950 0.679950 0.679950
0.706525 0.706525 0.706525
0.733100 0.733100 0.733100
0.759675 0.759675 0.759675
0.786250 0.786250 0.786250
0.812825 0.812825 0.812825
0.839400 0.839400 0.839400
0.865975 0.865975 0.865975
0.892550 0.892550 0.892550
0.769350 0.769350 0.769350
0.795925 0.795925 0.795925
0.822500 0.822500 0.822500
0.849075 0.849075 0.849075
0.875650 0.875650 0.875650
0.902225 0.902225 0.902225
0.928800 0.928800 0.928800
0.955375 0.955375 0.955375
0.981950 0.981950 0.981950
0.063175 0.063175 0.063175
0.089750 0.089750 0.089750
0.116325 0.116325 0.116325
0.142900 0.142900 0.142900
0.169475 0.169475 0.169475
0.196050 0.196050 0.196050
0.222625 0.222625 0.222625
0.249200 0.249200 0.249200
0.275775 0.275775 0.275775
0.152575 0.152575 0.152575
0.179150 0.179150 0.179150
0.205725 0.205725 0.205725
0.232300 0.232300 0.232300
0.258875 0.258875 0.258875
0.285450 0.285450 0.285450
0.312025 0.312025 0.312025
0.338600 0.338600 0.338600
0.365175 0.365175 0.365175
0.241975 0.241975 0.241975
0.268550 0.268550 0.268550
0.295125 0.295125 0.295125
0.321700 0.321700 0.321700
0.348275 0.348275 0.348275
0.374850 0.374850 0.374850
0.401425 0.401425 0.401425
0.428000 0.428000 0.428000
0.454575 0.454575 0.454575
0.331375 0.331375 0.331375
0.357950 0.357950 0.357950
0.384525 0.384525 0.384525
0.411100 0.411100 0.411100
0.437675 0.437675 0.437675
0.464250 0.464250 0.464250
0.490825 0.490825 0.490825
0.517400 0.517400 0.517400
0.543975 0.543975 0.543975
0.420775 0.420775 0.420775
0.447350 0.447350 0.447350
0.473925 0.473925 0.473925
0.500500 0.500500 0.500500
0.527075 0.527075 0.527075
0.553650 0.553650 0.553650
0.580225 0.580225 0.580225
0.606800 0.606800 0.606800
0.633375 0.633375 0.633375
0.510175 0.510175 0.510175
0.536750 0.536750 0.536750
0.563325 0.563325 0.563325
0.589900 0.589900 0.589900
0.616475 0.616475 0.616475
0.643050 0.643050 0.643050
0.669625 0.669625 0.669625
0.696200 0.696200 0.696200
0.722775 0.722775 0.722775
0.599575 0.599575 0.599575
0.626150 0.626150 0.626150
0.652725 0.652725 0.652725
0.679300 0.679300 0.679300
0.705875 0.705875 0.705875
0.732450 0.732450 0.732450
0.759025 0.759025 0.759025
0.785600 0.785600 0.785600
0.812175 0.812175 0.812175
0.688975 0.688975 0.688975
0.715550 0.715550 0.715550
0.742125 0.742125 0.742125
0.768700 0.768700 0.768700
0.795275 0.795275 0.795275
0.821850 0.821850 0.821850
0.848425 0.848425 0.848425
0.875000 0.875000 0.875000
0.901575 0.901575 0.901575
0.778375 0.778375 0.778375
0.804950 0.804950 0.804950
0.831525 0.831525 0.831525
0.858100 0.858100 0.858100
0.884675 0.884675 0.884675
0.911250 0.911250 0.911250
0.937825 0.937825 0.937825
0.964400 0.964400 0.964400
0.990975 0.990975 0.990975
0.072200 0.072200 0.072200
0.098775 0.098775 0.098775
0.125350 0.125350 0.125350
0.151925 0.151925 0.151925
0.178500 0.178500 0.178500
0.205075 0.205075 0.205075
0.231650 0.231650 0.231650
0.258225 0.258225 0.258225
0.284800 0.284800 0.284800
0.161600 0.161600 0.161600
0.188175 0.188175 0.188175
0.214750 0.214750 0.214750
0.241325 0.241325 0.241325
0.267900 0.267900 0.267900
0.294475 0.294475 0.294475
0.321050 0.321050 0.321050
0.347625 0.347625 0.347625
0.374200 0.374200 0.374200
0.251000 0.251000 0.251000
0.277575 0.277575 0.277575
0.304150 0.304150 0.304150
0.330725 0.330725 0.330725
0.357300 0.357300 0.357300
0.383875 0.383875 0.383875
0.410450 0.410450 0.410450
0.437025 0.437025 0.437025
0.463600 0.463600 0.463600
0.340400 0.340400 0.340400
0.366975 0.366975 0.366975
0.393550 0.393550 0.393550
0.420125 0.420125 0.420125
0.446700 0.446700 0.446700
0.473275 0.473275 0.473275
0.499850 0.499850 0.499850
0.526425 0.526425 0.526425
0.553000 0.553000 0.553000
0.429800 0.429800 0.429800
0.456375 0.456375 0.456375
0.482950 0.482950 0.482950
0.509525 0.509525 0.509525
0.536100 0.536100 0.536100
0.562675 0.562675 0.562675
0.589250 0.589250 0.589250
0.615825 0.615825 0.615825
0.642400 0.642400 0.642400
0.519200 0.519200 0.519200
0.545775 0.545775 0.545775
0.572350 0.572350 0.572350
0.598925 0.598925 0.598925
0.625500 0.625500 0.625500
0.652075 0.652075 0.652075
0.678650 0.678650 0.678650
0.705225 0.705225 0.705225
0.731800 0.731800 0.731800
0.608600 0.608600 0.608600
0.635175 0.635175 0.635175
0.661750 0.661750 0.661750
0.688325 0.688325 0.688325
0.714900 0.714900 0.714900
0.741475 0.741475 0.741475
0.768050 0.768050 0.768050
0.794625 0.794625 0.794625
0.821200 0.821200 0.821200
0.698000 0.698000 0.698000
0.724575 0.724575 0.724575
0.751150 0.751150 0.751150
0.777725 0.777725 0.777725
0.804300 0.804300 0.804300
0.830875 0.830875 0.830875
0.857450 0.857450 0.857450
0.884025 0.884025 0.884025
0.910600 0.910600 0.910600
0.787400 0.787400 0.787400
0.813975 0.813975 0.813975
0.840550 0.840550 0.840550
0.867125 0.867125 0.867125
0.893700 0.893700 0.893700
0.920275 0.920275 0.920275
0.946850 0.946850 0.946850
0.973425 0.973425 0.973425
1.000000 1.000000 1.000000
