renderer/presets/luts/cinematic.cube
TITLE "cinematic"
LUT_3D_SIZE 9
DOMAIN_MIN 0.0 0.0 0.0
DOMAIN_MAX 1.0 1.0 1.0
0.000000 0.000000 0.080000
0.126594 0.000478 0.077874
0.253189 0.000957 0.075748
0.379783 0.001435 0.073622
0.506378 0.001913 0.071496
0.632973 0.002392 0.069370
0.759567 0.002870 0.067244
0.886162 0.003348 0.065118
1.000000 0.003827 0.062992
0.005364 0.126609 0.072848
0.131959 0.127088 0.070722
0.258553 0.127566 0.068596
0.385147 0.128044 0.066470
0.511742 0.128523 0.064344
0.638336 0.129001 0.062218
0.764931 0.129479 0.060092
0.891525 0.129958 0.057966
1.000000 0.130436 0.055840
0.010728 0.253218 0.065696
0.137322 0.253697 0.063570
0.263917 0.254175 0.061444
0.390512 0.254653 0.059318
0.517106 0.255132 0.057192
0.643701 0.255610 0.055066
0.770295 0.256088 0.052940
0.896890 0.256567 0.050814
1.000000 0.257045 0.048688
0.016092 0.379828 0.058544
0.142686 0.380306 0.056418
0.269281 0.380784 0.054292
0.395875 0.381263 0.052166
0.522470 0.381741 0.050040
0.649065 0.382219 0.047914
0.775659 0.382698 0.045788
0.902254 0.383176 0.043662
1.000000 0.383654 0.041536
0.021456 0.506437 0.051392
0.148051 0.506915 0.049266
0.274645 0.507394 0.047140
0.401239 0.507872 0.045014
0.527834 0.508350 0.042888
0.654428 0.508829 0.040762
0.781023 0.509307 0.038636
0.907617 0.509785 0.036510
1.000000 0.510264 0.034384
0.026820 0.633046 0.044240
0.153415 0.633524 0.042114
0.280009 0.634003 0.039988
0.406604 0.634481 0.037862
0.533198 0.634959 0.035736
0.659793 0.635438 0.033610
0.786387 0.635916 0.031484
0.912982 0.636394 0.029358
1.000000 0.636873 0.027232
0.032184 0.759655 0.037088
0.158778 0.760134 0.034962
0.285373 0.760612 0.032836
0.411967 0.761090 0.030710
0.538562 0.761569 0.028584
0.665157 0.762047 0.026458
0.791751 0.762525 0.024332
0.918346 0.763004 0.022206
1.000000 0.763482 0.020080
0.037548 0.886264 0.029936
0.164142 0.886743 0.027810
0.290737 0.887221 0.025684
0.417331 0.887699 0.023558
0.543926 0.888178 0.021432
0.670520 0.888656 0.019306
0.797115 0.889135 0.017180
0.923709 0.889613 0.015054
1.000000 0.890091 0.012928
0.042912 1.000000 0.022784
0.169507 1.000000 0.020658
0.296101 1.000000 0.018532
0.422696 1.000000 0.016406
0.549290 1.000000 0.014280
0.675884 1.000000 0.012154
0.802479 1.000000 0.010028
0.929073 1.000000 0.007902
1.000000 1.000000 0.005776
0.000541 0.000162 0.204278
0.127136 0.000641 0.202152
0.253731 0.001119 0.200026
0.380325 0.001598 0.197900
0.506919 0.002076 0.195774
0.633514 0.002554 0.193648
0.760108 0.003033 0.191522
0.886703 0.003511 0.189396
1.000000 0.003989 0.187270
0.005905 0.126772 0.197126
0.132500 0.127250 0.195000
0.259095 0.127728 0.192874
0.385689 0.128207 0.190748
0.512284 0.128685 0.188622
0.638878 0.129163 0.186496
0.765473 0.129642 0.184370
0.892067 0.130120 0.182244
1.000000 0.130598 0.180118
0.011269 0.253381 0.189974
0.137864 0.253859 0.187848
0.264458 0.254338 0.185722
0.391053 0.254816 0.183596
0.517648 0.255294 0.181470
0.644242 0.255773 0.179344
0.770837 0.256251 0.177218
0.897431 0.256729 0.175092
1.000000 0.257208 0.172966
0.016633 0.379990 0.182822
0.143228 0.380468 0.180696
0.269823 0.380947 0.178570
0.396417 0.381425 0.176444
0.523011 0.381903 0.174318
0.649606 0.382382 0.172192
0.776200 0.382860 0.170066
0.902795 0.383339 0.167940
1.000000 0.383817 0.165814
0.021997 0.506599 0.175670
0.148592 0.507078 0.173544
0.275187 0.507556 0.171418
0.401781 0.508034 0.169292
0.528375 0.508513 0.167166
0.654970 0.508991 0.165040
0.781564 0.509469 0.162914
0.908159 0.509948 0.160788
1.000000 0.510426 0.158662
0.027361 0.633208 0.168518
0.153956 0.633687 0.166392
0.280550 0.634165 0.164266
0.407145 0.634644 0.162140
0.533740 0.635122 0.160014
0.660334 0.635600 0.157888
0.786929 0.636079 0.155762
0.913523 0.636557 0.153636
1.000000 0.637035 0.151510
0.032725 0.759818 0.161366
0.159320 0.760296 0.159240
0.285915 0.760774 0.157114
0.412509 0.761253 0.154988
0.539103 0.761731 0.152862
0.665698 0.762209 0.150736
0.792292 0.762688 0.148610
0.918887 0.763166 0.146484
1.000000 0.763644 0.144358
0.038089 0.886427 0.154214
0.164684 0.886905 0.152088
0.291278 0.887384 0.149962
0.417873 0.887862 0.147836
0.544467 0.888340 0.145710
0.671062 0.888819 0.143584
0.797656 0.889297 0.141458
0.924251 0.889775 0.139332
1.000000 0.890254 0.137206
0.043453 1.000000 0.147062
0.170048 1.000000 0.144936
0.296642 1.000000 0.142810
0.423237 1.000000 0.140684
0.549832 1.000000 0.138558
0.676426 1.000000 0.136432
0.803021 1.000000 0.134306
0.929615 1.000000 0.132180
1.000000 1.000000 0.130054
0.001083 0.000325 0.328556
0.127677 0.000803 0.326430
0.254272 0.001282 0.324304
0.380866 0.001760 0.322178
0.507461 0.002238 0.320052
0.634055 0.002717 0.317926
0.760650 0.003195 0.315800
0.887244 0.003673 0.313674
1.000000 0.004152 0.311548
0.006447 0.126934 0.321404
0.133042 0.127412 0.319278
0.259636 0.127891 0.317152
0.386230 0.128369 0.315026
0.512825 0.128848 0.312900
0.639420 0.129326 0.310774
0.766014 0.129804 0.308648
0.892609 0.130283 0.306522
1.000000 0.130761 0.304396
0.011811 0.253543 0.314252
0.138405 0.254022 0.312126
0.265000 0.254500 0.310000
0.391595 0.254978 0.307874
0.518189 0.255457 0.305748
0.644783 0.255935 0.303622
0.771378 0.256413 0.301496
0.897972 0.256892 0.299370
1.000000 0.257370 0.297244
0.017175 0.380153 0.307100
0.143769 0.380631 0.304974
0.270364 0.381109 0.302848
0.396958 0.381588 0.300722
0.523553 0.382066 0.298596
0.650147 0.382544 0.296470
0.776742 0.383023 0.294344
0.903336 0.383501 0.292218
1.000000 0.383979 0.290092
0.022539 0.506762 0.299948
0.149134 0.507240 0.297822
0.275728 0.507718 0.295696
0.402322 0.508197 0.293570
0.528917 0.508675 0.291444
0.655512 0.509153 0.289318
0.782106 0.509632 0.287192
0.908701 0.510110 0.285066
1.000000 0.510589 0.282940
0.027903 0.633371 0.292796
0.154498 0.633849 0.290670
0.281092 0.634328 0.288544
0.407687 0.634806 0.286418
0.534281 0.635284 0.284292
0.660875 0.635763 0.282166
0.787470 0.636241 0.280040
0.914064 0.636719 0.277914
1.000000 0.637198 0.275788
0.033267 0.759980 0.285644
0.159861 0.760458 0.283518
0.286456 0.760937 0.281392
0.413050 0.761415 0.279266
0.539645 0.761894 0.277140
0.666239 0.762372 0.275014
0.792834 0.762850 0.272888
0.919428 0.763329 0.270762
1.000000 0.763807 0.268636
0.038631 0.886589 0.278492
0.165225 0.887068 0.276366
0.291820 0.887546 0.274240
0.418415 0.888024 0.272114
0.545009 0.888503 0.269988
0.671604 0.888981 0.267862
0.798198 0.889459 0.265736
0.924793 0.889938 0.263610
1.000000 0.890416 0.261484
0.043995 1.000000 0.271340
0.170590 1.000000 0.269214
0.297184 1.000000 0.267088
0.423779 1.000000 0.264962
0.550373 1.000000 0.262836
0.676967 1.000000 0.260710
0.803562 1.000000 0.258584
0.930157 1.000000 0.256458
1.000000 1.000000 0.254332
0.001625 0.000487 0.452834
0.128219 0.000966 0.450708
0.254814 0.001444 0.448582
0.381408 0.001922 0.446456
0.508003 0.002401 0.444330
0.634597 0.002879 0.442204
0.761192 0.003357 0.440078
0.887786 0.003836 0.437952
1.000000 0.004314 0.435826
0.006988 0.127097 0.445682
0.133583 0.127575 0.443556
0.260178 0.128053 0.441430
0.386772 0.128532 0.439304
0.513366 0.129010 0.437178
0.639961 0.129488 0.435052
0.766555 0.129967 0.432926
0.893150 0.130445 0.430800
1.000000 0.130923 0.428674
0.012352 0.253706 0.438530
0.138947 0.254184 0.436404
0.265541 0.254662 0.434278
0.392136 0.255141 0.432152
0.518730 0.255619 0.430026
0.645325 0.256097 0.427900
0.771919 0.256576 0.425774
0.898514 0.257054 0.423648
1.000000 0.257533 0.421522
0.017716 0.380315 0.431378
0.144311 0.380793 0.429252
0.270906 0.381272 0.427126
0.397500 0.381750 0.425000
0.524095 0.382228 0.422874
0.650689 0.382707 0.420748
0.777284 0.383185 0.418622
0.903878 0.383663 0.416496
1.000000 0.384142 0.414370
0.023080 0.506924 0.424226
0.149675 0.507402 0.422100
0.276270 0.507881 0.419974
0.402864 0.508359 0.417848
0.529459 0.508838 0.415722
0.656053 0.509316 0.413596
0.782647 0.509794 0.411470
0.909242 0.510273 0.409344
1.000000 0.510751 0.407218
0.028444 0.633533 0.417074
0.155039 0.634012 0.414948
0.281633 0.634490 0.412822
0.408228 0.634968 0.410696
0.534822 0.635447 0.408570
0.661417 0.635925 0.406444
0.788011 0.636403 0.404318
0.914606 0.636882 0.402192
1.000000 0.637360 0.400066
0.033808 0.760143 0.409922
0.160403 0.760621 0.407796
0.286998 0.761099 0.405670
0.413592 0.761578 0.403544
0.540187 0.762056 0.401418
0.666781 0.762534 0.399292
0.793376 0.763013 0.397166
0.919970 0.763491 0.395040
1.000000 0.763969 0.392914
0.039172 0.886752 0.402770
0.165767 0.887230 0.400644
0.292361 0.887708 0.398518
0.418956 0.888187 0.396392
0.545551 0.888665 0.394266
0.672145 0.889143 0.392140
0.798739 0.889622 0.390014
0.925334 0.890100 0.387888
1.000000 0.890579 0.385762
0.044536 1.000000 0.395618
0.171131 1.000000 0.393492
0.297725 1.000000 0.391366
0.424320 1.000000 0.389240
0.550914 1.000000 0.387114
0.677509 1.000000 0.384988
0.804103 1.000000 0.382862
0.930698 1.000000 0.380736
1.000000 1.000000 0.378610
0.002166 0.000650 0.577112
0.128760 0.001128 0.574986
0.255355 0.001606 0.572860
0.381949 0.002085 0.570734
0.508544 0.002563 0.568608
0.635139 0.003042 0.566482
0.761733 0.003520 0.564356
0.888328 0.003998 0.562230
1.000000 0.004477 0.560104
0.007530 0.127259 0.569960
0.134125 0.127737 0.567834
0.260719 0.128216 0.565708
0.387313 0.128694 0.563582
0.513908 0.129172 0.561456
0.640502 0.129651 0.559330
0.767097 0.130129 0.557204
0.893691 0.130607 0.555078
1.000000 0.131086 0.552952
0.012894 0.253868 0.562808
0.139488 0.254347 0.560682
0.266083 0.254825 0.558556
0.392678 0.255303 0.556430
0.519272 0.255782 0.554304
0.645867 0.256260 0.552178
0.772461 0.256738 0.550052
0.899056 0.257217 0.547926
1.000000 0.257695 0.545800
0.018258 0.380477 0.555656
0.144852 0.380956 0.553530
0.271447 0.381434 0.551404
0.398041 0.381912 0.549278
0.524636 0.382391 0.547152
0.651231 0.382869 0.545026
0.777825 0.383348 0.542900
0.904420 0.383826 0.540774
1.000000 0.384304 0.538648
0.023622 0.507087 0.548504
0.150217 0.507565 0.546378
0.276811 0.508043 0.544252
0.403405 0.508522 0.542126
0.530000 0.509000 0.540000
0.656594 0.509478 0.537874
0.783189 0.509957 0.535748
0.909783 0.510435 0.533622
1.000000 0.510913 0.531496
0.028986 0.633696 0.541352
0.155581 0.634174 0.539226
0.282175 0.634652 0.537100
0.408770 0.635131 0.534974
0.535364 0.635609 0.532848
0.661959 0.636088 0.530722
0.788553 0.636566 0.528596
0.915148 0.637044 0.526470
1.000000 0.637523 0.524344
0.034350 0.760305 0.534200
0.160944 0.760783 0.532074
0.287539 0.761262 0.529948
0.414133 0.761740 0.527822
0.540728 0.762218 0.525696
0.667323 0.762697 0.523570
0.793917 0.763175 0.521444
0.920512 0.763653 0.519318
1.000000 0.764132 0.517192
0.039714 0.886914 0.527048
0.166308 0.887393 0.524922
0.292903 0.887871 0.522796
0.419497 0.888349 0.520670
0.546092 0.888828 0.518544
0.672686 0.889306 0.516418
0.799281 0.889784 0.514292
0.925875 0.890263 0.512166
1.000000 0.890741 0.510040
0.045078 1.000000 0.519896
0.171673 1.000000 0.517770
0.298267 1.000000 0.515644
0.424862 1.000000 0.513518
0.551456 1.000000 0.511392
0.678051 1.000000 0.509266
0.804645 1.000000 0.507140
0.931239 1.000000 0.505014
1.000000 1.000000 0.502888
0.002707 0.000812 0.701390
0.129302 0.001291 0.699264
0.255897 0.001769 0.697138
0.382491 0.002247 0.695012
0.509085 0.002726 0.692886
0.635680 0.003204 0.690760
0.762274 0.003682 0.688634
0.888869 0.004161 0.686508
1.000000 0.004639 0.684382
0.008072 0.127421 0.694238
0.134666 0.127900 0.692112
0.261261 0.128378 0.689986
0.387855 0.128857 0.687860
0.514450 0.129335 0.685734
0.641044 0.129813 0.683608
0.767639 0.130292 0.681482
0.894233 0.130770 0.679356
1.000000 0.131248 0.677230
0.013435 0.254031 0.687086
0.140030 0.254509 0.684960
0.266624 0.254987 0.682834
0.393219 0.255466 0.680708
0.519814 0.255944 0.678582
0.646408 0.256422 0.676456
0.773003 0.256901 0.674330
0.899597 0.257379 0.672204
1.000000 0.257857 0.670078
0.018799 0.380640 0.679934
0.145394 0.381118 0.677808
0.271989 0.381597 0.675682
0.398583 0.382075 0.673556
0.525177 0.382553 0.671430
0.651772 0.383032 0.669304
0.778366 0.383510 0.667178
0.904961 0.383988 0.665052
1.000000 0.384467 0.662926
0.024163 0.507249 0.672782
0.150758 0.507727 0.670656
0.277353 0.508206 0.668530
0.403947 0.508684 0.666404
0.530541 0.509162 0.664278
0.657136 0.509641 0.662152
0.783730 0.510119 0.660026
0.910325 0.510598 0.657900
1.000000 0.511076 0.655774
0.029527 0.633858 0.665630
0.156122 0.634337 0.663504
0.282716 0.634815 0.661378
0.409311 0.635293 0.659252
0.535906 0.635772 0.657126
0.662500 0.636250 0.655000
0.789095 0.636728 0.652874
0.915689 0.637207 0.650748
1.000000 0.637685 0.648622
0.034891 0.760467 0.658478
0.161486 0.760946 0.656352
0.288081 0.761424 0.654226
0.414675 0.761903 0.652100
0.541269 0.762381 0.649974
0.667864 0.762859 0.647848
0.794458 0.763338 0.645722
0.921053 0.763816 0.643596
1.000000 0.764294 0.641470
0.040255 0.887077 0.651326
0.166850 0.887555 0.649200
0.293444 0.888033 0.647074
0.420039 0.888512 0.644948
0.546633 0.888990 0.642822
0.673228 0.889468 0.640696
0.799822 0.889947 0.638570
0.926417 0.890425 0.636444
1.000000 0.890903 0.634318
0.045619 1.000000 0.644174
0.172214 1.000000 0.642048
0.298808 1.000000 0.639922
0.425403 1.000000 0.637796
0.551998 1.000000 0.635670
0.678592 1.000000 0.633544
0.805187 1.000000 0.631418
0.931781 1.000000 0.629292
1.000000 1.000000 0.627166
0.003249 0.000975 0.825668
0.129844 0.001453 0.823542
0.256438 0.001931 0.821416
0.383032 0.002410 0.819290
0.509627 0.002888 0.817164
0.636221 0.003366 0.815038
0.762816 0.003845 0.812912
0.889410 0.004323 0.810786
1.000000 0.004802 0.808660
0.008613 0.127584 0.818516
0.135208 0.128062 0.816390
0.261802 0.128541 0.814264
0.388396 0.129019 0.812138
0.514991 0.129497 0.810012
0.641586 0.129976 0.807886
0.768180 0.130454 0.805760
0.894775 0.130932 0.803634
1.000000 0.131411 0.801508
0.013977 0.254193 0.811364
0.140571 0.254671 0.809238
0.267166 0.255150 0.807112
0.393761 0.255628 0.804986
0.520355 0.256107 0.802860
0.646949 0.256585 0.800734
0.773544 0.257063 0.798608
0.900138 0.257542 0.796482
1.000000 0.258020 0.794356
0.019341 0.380802 0.804212
0.145935 0.381281 0.802086
0.272530 0.381759 0.799960
0.399124 0.382237 0.797834
0.525719 0.382716 0.795708
0.652313 0.383194 0.793582
0.778908 0.383672 0.791456
0.905502 0.384151 0.789330
1.000000 0.384629 0.787204
0.024705 0.507412 0.797060
0.151300 0.507890 0.794934
0.277894 0.508368 0.792808
0.404488 0.508847 0.790682
0.531083 0.509325 0.788556
0.657678 0.509803 0.786430
0.784272 0.510282 0.784304
0.910867 0.510760 0.782178
1.000000 0.511238 0.780052
0.030069 0.634021 0.789908
0.156664 0.634499 0.787782
0.283258 0.634977 0.785656
0.409853 0.635456 0.783530
0.536447 0.635934 0.781404
0.663041 0.636412 0.779278
0.789636 0.636891 0.777152
0.916230 0.637369 0.775026
1.000000 0.637848 0.772900
0.035433 0.760630 0.782756
0.162027 0.761108 0.780630
0.288622 0.761587 0.778504
0.415216 0.762065 0.776378
0.541811 0.762543 0.774252
0.668405 0.763022 0.772126
0.795000 0.763500 0.770000
0.921594 0.763978 0.767874
1.000000 0.764457 0.765748
0.040797 0.887239 0.775604
0.167391 0.887717 0.773478
0.293986 0.888196 0.771352
0.420581 0.888674 0.769226
0.547175 0.889153 0.767100
0.673770 0.889631 0.764974
0.800364 0.890109 0.762848
0.926959 0.890588 0.760722
1.000000 0.891066 0.758596
0.046161 1.000000 0.768452
0.172756 1.000000 0.766326
0.299350 1.000000 0.764200
0.425945 1.000000 0.762074
0.552539 1.000000 0.759948
0.679133 1.000000 0.757822
0.805728 1.000000 0.755696
0.932322 1.000000 0.753570
1.000000 1.000000 0.751444
0.003790 0.001137 0.949946
0.130385 0.001615 0.947820
0.256980 0.002094 0.945694
0.383574 0.002572 0.943568
0.510169 0.003051 0.941442
0.636763 0.003529 0.939316
0.763358 0.004007 0.937190
0.889952 0.004486 0.935064
1.000000 0.004964 0.932938
0.009154 0.127746 0.942794
0.135749 0.128225 0.940668
0.262344 0.128703 0.938542
0.388938 0.129181 0.936416
0.515532 0.129660 0.934290
0.642127 0.130138 0.932164
0.768721 0.130616 0.930038
0.895316 0.131095 0.927912
1.000000 0.131573 0.925786
0.014518 0.254356 0.935642
0.141113 0.254834 0.933516
0.267707 0.255312 0.931390
0.394302 0.255791 0.929264
0.520896 0.256269 0.927138
0.647491 0.256747 0.925012
0.774085 0.257226 0.922886
0.900680 0.257704 0.920760
1.000000 0.258182 0.918634
0.019882 0.380965 0.928490
0.146477 0.381443 0.926364
0.273072 0.381921 0.924238
0.399666 0.382400 0.922112
0.526261 0.382878 0.919986
0.652855 0.383356 0.917860
0.779450 0.383835 0.915734
0.906044 0.384313 0.913608
1.000000 0.384792 0.911482
0.025246 0.507574 0.921338
0.151841 0.508052 0.919212
0.278436 0.508531 0.917086
0.405030 0.509009 0.914960
0.531624 0.509487 0.912834
0.658219 0.509966 0.910708
0.784814 0.510444 0.908582
0.911408 0.510922 0.906456
1.000000 0.511401 0.904330
0.030610 0.634183 0.914186
0.157205 0.634661 0.912060
0.283799 0.635140 0.909934
0.410394 0.635618 0.907808
0.536988 0.636097 0.905682
0.663583 0.636575 0.903556
0.790177 0.637053 0.901430
0.916772 0.637532 0.899304
1.000000 0.638010 0.897178
0.035974 0.760792 0.907034
0.162569 0.761271 0.904908
0.289164 0.761749 0.902782
0.415758 0.762227 0.900656
0.542353 0.762706 0.898530
0.668947 0.763184 0.896404
0.795542 0.763662 0.894278
0.922136 0.764141 0.892152
1.000000 0.764619 0.890026
0.041338 0.887402 0.899882
0.167933 0.887880 0.897756
0.294527 0.888358 0.895630
0.421122 0.888837 0.893504
0.547716 0.889315 0.891378
0.674311 0.889793 0.889252
0.800906 0.890272 0.887126
0.927500 0.890750 0.885000
1.000000 0.891228 0.882874
0.046702 1.000000 0.892730
0.173297 1.000000 0.890604
0.299891 1.000000 0.888478
0.426486 1.000000 0.886352
0.553080 1.000000 0.884226
0.679675 1.000000 0.882100
0.806269 1.000000 0.879974
0.932864 1.000000 0.877848
1.000000 1.000000 0.875722
0.004332 0.001300 1.000000
0.130927 0.001778 1.000000
0.257521 0.002256 1.000000
0.384115 0.002735 1.000000
0.510710 0.003213 1.000000
0.637305 0.003691 1.000000
0.763899 0.004170 1.000000
0.890494 0.004648 1.000000
1.000000 0.005126 1.000000
0.009696 0.127909 1.000000
0.136291 0.128387 1.000000
0.262885 0.128865 1.000000
0.389479 0.129344 1.000000
0.516074 0.129822 1.000000
0.642668 0.130301 1.000000
0.769263 0.130779 1.000000
0.895857 0.131257 1.000000
1.000000 0.131736 1.000000
0.015060 0.254518 1.000000
0.141654 0.254996 1.000000
0.268249 0.255475 1.000000
0.394844 0.255953 1.000000
0.521438 0.256431 1.000000
0.648033 0.256910 1.000000
0.774627 0.257388 1.000000
0.901222 0.257866 1.000000
1.000000 0.258345 1.000000
0.020424 0.381127 1.000000
0.147018 0.381606 1.000000
0.273613 0.382084 1.000000
0.400207 0.382562 1.000000
0.526802 0.383041 1.000000
0.653397 0.383519 1.000000
0.779991 0.383997 1.000000
0.906586 0.384476 1.000000
1.000000 0.384954 1.000000
0.025788 0.507736 1.000000
0.152383 0.508215 1.000000
0.278977 0.508693 1.000000
0.405571 0.509171 1.000000
0.532166 0.509650 1.000000
0.658760 0.510128 1.000000
0.785355 0.510606 1.000000
0.911949 0.511085 1.000000
1.000000 0.511563 1.000000
0.031152 0.634346 1.000000
0.157747 0.634824 1.000000
0.284341 0.635302 1.000000
0.410936 0.635781 1.000000
0.537530 0.636259 1.000000
0.664125 0.636737 1.000000
0.790719 0.637216 1.000000
0.917314 0.637694 1.000000
1.000000 0.638172 1.000000
0.036516 0.760955 1.000000
0.163110 0.761433 1.000000
0.289705 0.761911 1.000000
0.416299 0.762390 1.000000
0.542894 0.762868 1.000000
0.669489 0.763347 1.000000
0.796083 0.763825 1.000000
0.922678 0.764303 1.000000
1.000000 0.764782 1.000000
0.041880 0.887564 1.000000
0.168474 0.888042 1.000000
0.295069 0.888521 1.000000
0.421663 0.888999 1.000000
0.548258 0.889477 1.000000
0.674852 0.889956 1.000000
0.801447 0.890434 1.000000
0.928041 0.890912 1.000000
1.000000 0.891391 1.000000
0.047244 1.000000 1.000000
0.173839 1.000000 1.000000
0.300433 1.000000 1.000000
0.427028 1.000000 1.000000
0.553622 1.000000 1.000000
0.680217 1.000000 1.000000
0.806811 1.000000 1.000000
0.933405 1.000000 1.000000
1.000000 1.000000 1.000000
