renderer/presets/luts/vivid.cube
TITLE "vivid"
LUT_3D_SIZE 9
DOMAIN_MIN 0.0 0.0 0.0
DOMAIN_MAX 1.0 1.0 1.0
0.000000 0.000000 0.000000
0.154527 0.000000 0.000000
0.309055 0.000000 0.000000
0.463583 0.000000 0.000000
0.618110 0.000000 0.000000
0.772638 0.000000 0.000000
0.927165 0.000000 0.000000
1.000000 0.000000 0.000000
1.000000 0.000000 0.000000
0.000000 0.135680 0.000000
0.127708 0.127708 0.000000
0.282235 0.119735 0.000000
0.436763 0.111763 0.000000
0.591290 0.103790 0.000000
0.745818 0.095817 0.000000
0.900345 0.087845 0.000000
1.000000 0.079873 0.000000
1.000000 0.071900 0.000000
0.000000 0.271360 0.000000
0.100888 0.263387 0.000000
0.255415 0.255415 0.000000
0.409942 0.247443 0.000000
0.564470 0.239470 0.000000
0.718997 0.231497 0.000000
0.873525 0.223525 0.000000
1.000000 0.215553 0.000000
1.000000 0.207580 0.000000
0.000000 0.407040 0.000000
0.074067 0.399068 0.000000
0.228595 0.391095 0.000000
0.383123 0.383123 0.000000
0.537650 0.375150 0.000000
0.692178 0.367177 0.000000
0.846705 0.359205 0.000000
1.000000 0.351233 0.000000
1.000000 0.343260 0.000000
0.000000 0.542720 0.000000
0.047247 0.534748 0.000000
0.201775 0.526775 0.000000
0.356303 0.518803 0.000000
0.510830 0.510830 0.000000
0.665358 0.502857 0.000000
0.819885 0.494885 0.000000
0.974413 0.486912 0.000000
1.000000 0.478940 0.000000
0.000000 0.678400 0.000000
0.020427 0.670427 0.000000
0.174955 0.662455 0.000000
0.329483 0.654482 0.000000
0.484010 0.646510 0.000000
0.638537 0.638537 0.000000
0.793065 0.630565 0.000000
0.947593 0.622592 0.000000
1.000000 0.614620 0.000000
0.000000 0.814080 0.000000
0.000000 0.806107 0.000000
0.148135 0.798135 0.000000
0.302663 0.790162 0.000000
0.457190 0.782190 0.000000
0.611718 0.774218 0.000000
0.766245 0.766245 0.000000
0.920772 0.758273 0.000000
1.000000 0.750300 0.000000
0.000000 0.949760 0.000000
0.000000 0.941787 0.000000
0.121315 0.933815 0.000000
0.275842 0.925843 0.000000
0.430370 0.917870 0.000000
0.584897 0.909898 0.000000
0.739425 0.901925 0.000000
0.893953 0.893953 0.000000
1.000000 0.885980 0.000000
0.000000 1.000000 0.000000
0.000000 1.000000 0.000000
0.094495 1.000000 0.000000
0.249023 1.000000 0.000000
0.403550 1.000000 0.000000
0.558078 1.000000 0.000000
0.712605 1.000000 0.000000
0.867132 1.000000 0.000000
1.000000 1.000000 0.000000
0.000000 0.000000 0.159793
0.151820 0.000000 0.151820
0.306347 0.000000 0.143847
0.460875 0.000000 0.135875
0.615402 0.000000 0.127903
0.769930 0.000000 0.119930
0.924458 0.000000 0.111957
1.000000 0.000000 0.103985
1.000000 0.000000 0.096013
0.000000 0.132972 0.132972
0.125000 0.125000 0.125000
0.279528 0.117027 0.117027
0.434055 0.109055 0.109055
0.588583 0.101083 0.101083
0.743110 0.093110 0.093110
0.897638 0.085137 0.085137
1.000000 0.077165 0.077165
1.000000 0.069192 0.069192
0.000000 0.268653 0.106152
0.098180 0.260680 0.098180
0.252707 0.252707 0.090207
0.407235 0.244735 0.082235
0.561762 0.236762 0.074262
0.716290 0.228790 0.066290
0.870818 0.220817 0.058317
1.000000 0.212845 0.050345
1.000000 0.204873 0.042372
0.000000 0.404332 0.079333
0.071360 0.396360 0.071360
0.225887 0.388387 0.063387
0.380415 0.380415 0.055415
0.534942 0.372443 0.047442
0.689470 0.364470 0.039470
0.843997 0.356498 0.031498
0.998525 0.348525 0.023525
1.000000 0.340552 0.015552
0.000000 0.540013 0.052513
0.044540 0.532040 0.044540
0.199068 0.524068 0.036567
0.353595 0.516095 0.028595
0.508123 0.508123 0.020622
0.662650 0.500150 0.012650
0.817178 0.492177 0.004678
0.971705 0.484205 0.000000
1.000000 0.476233 0.000000
0.000000 0.675693 0.025693
0.017720 0.667720 0.017720
0.172247 0.659748 0.009748
0.326775 0.651775 0.001775
0.481303 0.643803 0.000000
0.635830 0.635830 0.000000
0.790358 0.627858 0.000000
0.944885 0.619885 0.000000
1.000000 0.611913 0.000000
0.000000 0.811373 0.000000
0.000000 0.803400 0.000000
0.145427 0.795427 0.000000
0.299955 0.787455 0.000000
0.454483 0.779482 0.000000
0.609010 0.771510 0.000000
0.763537 0.763537 0.000000
0.918065 0.755565 0.000000
1.000000 0.747592 0.000000
0.000000 0.947053 0.000000
0.000000 0.939080 0.000000
0.118607 0.931107 0.000000
0.273135 0.923135 0.000000
0.427663 0.915162 0.000000
0.582190 0.907190 0.000000
0.736718 0.899218 0.000000
0.891245 0.891245 0.000000
1.000000 0.883273 0.000000
0.000000 1.000000 0.000000
0.000000 1.000000 0.000000
0.091788 1.000000 0.000000
0.246315 1.000000 0.000000
0.400843 1.000000 0.000000
0.555370 1.000000 0.000000
0.709898 1.000000 0.000000
0.864425 1.000000 0.000000
1.000000 1.000000 0.000000
0.000000 0.000000 0.319585
0.149113 0.000000 0.311612
0.303640 0.000000 0.303640
0.458168 0.000000 0.295667
0.612695 0.000000 0.287695
0.767222 0.000000 0.279722
0.921750 0.000000 0.271750
1.000000 0.000000 0.263777
1.000000 0.000000 0.255805
0.000000 0.130265 0.292765
0.122292 0.122292 0.284793
0.276820 0.114320 0.276820
0.431347 0.106347 0.268848
0.585875 0.098375 0.260875
0.740402 0.090402 0.252902
0.894930 0.082430 0.244930
1.000000 0.074458 0.236957
1.000000 0.066485 0.228985
0.000000 0.265945 0.265945
0.095472 0.257972 0.257972
0.250000 0.250000 0.250000
0.404528 0.242028 0.242028
0.559055 0.234055 0.234055
0.713583 0.226082 0.226082
0.868110 0.218110 0.218110
1.000000 0.210138 0.210138
1.000000 0.202165 0.202165
0.000000 0.401625 0.239125
0.068652 0.393653 0.231152
0.223180 0.385680 0.223180
0.377707 0.377707 0.215207
0.532235 0.369735 0.207235
0.686762 0.361762 0.199262
0.841290 0.353790 0.191290
0.995818 0.345817 0.183317
1.000000 0.337845 0.175345
0.000000 0.537305 0.212305
0.041832 0.529332 0.204333
0.196360 0.521360 0.196360
0.350888 0.513387 0.188387
0.505415 0.505415 0.180415
0.659942 0.497443 0.172442
0.814470 0.489470 0.164470
0.968997 0.481497 0.156497
1.000000 0.473525 0.148525
0.000000 0.672985 0.185485
0.015012 0.665013 0.177513
0.169540 0.657040 0.169540
0.324067 0.649068 0.161567
0.478595 0.641095 0.153595
0.633123 0.633123 0.145622
0.787650 0.625150 0.137650
0.942178 0.617178 0.129678
1.000000 0.609205 0.121705
0.000000 0.808665 0.158665
0.000000 0.800693 0.150693
0.142720 0.792720 0.142720
0.297247 0.784747 0.134747
0.451775 0.776775 0.126775
0.606302 0.768802 0.118802
0.760830 0.760830 0.110830
0.915358 0.752857 0.102857
1.000000 0.744885 0.094885
0.000000 0.944345 0.131845
0.000000 0.936373 0.123873
0.115900 0.928400 0.115900
0.270427 0.920427 0.107927
0.424955 0.912455 0.099955
0.579483 0.904482 0.091982
0.734010 0.896510 0.084010
0.888537 0.888537 0.076037
1.000000 0.880565 0.068065
0.000000 1.000000 0.105025
0.000000 1.000000 0.097052
0.089080 1.000000 0.089080
0.243607 1.000000 0.081107
0.398135 1.000000 0.073135
0.552663 1.000000 0.065163
0.707190 1.000000 0.057190
0.861718 1.000000 0.049218
1.000000 1.000000 0.041245
0.000000 0.000000 0.479378
0.146405 0.000000 0.471405
0.300933 0.000000 0.463433
0.455460 0.000000 0.455460
0.609988 0.000000 0.447487
0.764515 0.000000 0.439515
0.919042 0.000000 0.431543
1.000000 0.000000 0.423570
1.000000 0.000000 0.415598
0.000000 0.127557 0.452558
0.119585 0.119585 0.444585
0.274112 0.111612 0.436613
0.428640 0.103640 0.428640
0.583168 0.095667 0.420667
0.737695 0.087695 0.412695
0.892222 0.079722 0.404722
1.000000 0.071750 0.396750
1.000000 0.063777 0.388777
0.000000 0.263238 0.425737
0.092765 0.255265 0.417765
0.247292 0.247292 0.409793
0.401820 0.239320 0.401820
0.556347 0.231347 0.393848
0.710875 0.223375 0.385875
0.865402 0.215402 0.377902
1.000000 0.207430 0.369930
1.000000 0.199458 0.361957
0.000000 0.398917 0.398917
0.065945 0.390945 0.390945
0.220472 0.382972 0.382972
0.375000 0.375000 0.375000
0.529528 0.367028 0.367028
0.684055 0.359055 0.359055
0.838583 0.351083 0.351083
0.993110 0.343110 0.343110
1.000000 0.335137 0.335137
0.000000 0.534598 0.372098
0.039125 0.526625 0.364125
0.193653 0.518652 0.356152
0.348180 0.510680 0.348180
0.502707 0.502707 0.340207
0.657235 0.494735 0.332235
0.811762 0.486762 0.324263
0.966290 0.478790 0.316290
1.000000 0.470817 0.308317
0.000000 0.670278 0.345278
0.012305 0.662305 0.337305
0.166832 0.654332 0.329333
0.321360 0.646360 0.321360
0.475888 0.638387 0.313388
0.630415 0.630415 0.305415
0.784943 0.622443 0.297442
0.939470 0.614470 0.289470
1.000000 0.606498 0.281498
0.000000 0.805957 0.318458
0.000000 0.797985 0.310485
0.140012 0.790013 0.302513
0.294540 0.782040 0.294540
0.449067 0.774068 0.286567
0.603595 0.766095 0.278595
0.758123 0.758123 0.270622
0.912650 0.750150 0.262650
1.000000 0.742178 0.254678
0.000000 0.941638 0.291638
0.000000 0.933665 0.283665
0.113193 0.925693 0.275693
0.267720 0.917720 0.267720
0.422247 0.909748 0.259748
0.576775 0.901775 0.251775
0.731303 0.893803 0.243803
0.885830 0.885830 0.235830
1.000000 0.877858 0.227858
0.000000 1.000000 0.264818
0.000000 1.000000 0.256845
0.086372 1.000000 0.248873
0.240900 1.000000 0.240900
0.395428 1.000000 0.232928
0.549955 1.000000 0.224955
0.704483 1.000000 0.216982
0.859010 1.000000 0.209010
1.000000 1.000000 0.201037
0.000000 0.000000 0.639170
0.143698 0.000000 0.631197
0.298225 0.000000 0.623225
0.452753 0.000000 0.615252
0.607280 0.000000 0.607280
0.761807 0.000000 0.599307
0.916335 0.000000 0.591335
1.000000 0.000000 0.583363
1.000000 0.000000 0.575390
0.000000 0.124850 0.612350
0.116877 0.116877 0.604378
0.271405 0.108905 0.596405
0.425933 0.100932 0.588433
0.580460 0.092960 0.580460
0.734988 0.084987 0.572488
0.889515 0.077015 0.564515
1.000000 0.069043 0.556543
1.000000 0.061070 0.548570
0.000000 0.260530 0.585530
0.090058 0.252557 0.577557
0.244585 0.244585 0.569585
0.399112 0.236613 0.561613
0.553640 0.228640 0.553640
0.708168 0.220667 0.545667
0.862695 0.212695 0.537695
1.000000 0.204723 0.529722
1.000000 0.196750 0.521750
0.000000 0.396210 0.558710
0.063238 0.388238 0.550737
0.217765 0.380265 0.542765
0.372293 0.372293 0.534793
0.526820 0.364320 0.526820
0.681347 0.356347 0.518848
0.835875 0.348375 0.510875
0.990402 0.340402 0.502903
1.000000 0.332430 0.494930
0.000000 0.531890 0.531890
0.036417 0.523918 0.523918
0.190945 0.515945 0.515945
0.345472 0.507973 0.507973
0.500000 0.500000 0.500000
0.654528 0.492028 0.492028
0.809055 0.484055 0.484055
0.963583 0.476082 0.476082
1.000000 0.468110 0.468110
0.000000 0.667570 0.505070
0.009598 0.659598 0.497098
0.164125 0.651625 0.489125
0.318653 0.643652 0.481152
0.473180 0.635680 0.473180
0.627707 0.627707 0.465207
0.782235 0.619735 0.457235
0.936762 0.611762 0.449263
1.000000 0.603790 0.441290
0.000000 0.803250 0.478250
0.000000 0.795277 0.470278
0.137305 0.787305 0.462305
0.291832 0.779332 0.454332
0.446360 0.771360 0.446360
0.600888 0.763387 0.438387
0.755415 0.755415 0.430415
0.909942 0.747443 0.422442
1.000000 0.739470 0.414470
0.000000 0.938930 0.451430
0.000000 0.930957 0.443458
0.110485 0.922985 0.435485
0.265012 0.915013 0.427513
0.419540 0.907040 0.419540
0.574067 0.899068 0.411567
0.728595 0.891095 0.403595
0.883123 0.883123 0.395622
1.000000 0.875150 0.387650
0.000000 1.000000 0.424610
0.000000 1.000000 0.416637
0.083665 1.000000 0.408665
0.238193 1.000000 0.400693
0.392720 1.000000 0.392720
0.547247 1.000000 0.384748
0.701775 1.000000 0.376775
0.856302 1.000000 0.368803
1.000000 1.000000 0.360830
0.000000 0.000000 0.798963
0.140990 0.000000 0.790990
0.295517 0.000000 0.783018
0.450045 0.000000 0.775045
0.604572 0.000000 0.767073
0.759100 0.000000 0.759100
0.913628 0.000000 0.751127
1.000000 0.000000 0.743155
1.000000 0.000000 0.735183
0.000000 0.122143 0.772143
0.114170 0.114170 0.764170
0.268698 0.106198 0.756197
0.423225 0.098225 0.748225
0.577753 0.090253 0.740253
0.732280 0.082280 0.732280
0.886807 0.074307 0.724307
1.000000 0.066335 0.716335
1.000000 0.058362 0.708363
0.000000 0.257823 0.745323
0.087350 0.249850 0.737350
0.241878 0.241878 0.729378
0.396405 0.233905 0.721405
0.550933 0.225932 0.713433
0.705460 0.217960 0.705460
0.859988 0.209987 0.697488
1.000000 0.202015 0.689515
1.000000 0.194043 0.681543
0.000000 0.393503 0.718503
0.060530 0.385530 0.710530
0.215057 0.377557 0.702557
0.369585 0.369585 0.694585
0.524112 0.361613 0.686613
0.678640 0.353640 0.678640
0.833168 0.345668 0.670667
0.987695 0.337695 0.662695
1.000000 0.329723 0.654722
0.000000 0.529183 0.691682
0.033710 0.521210 0.683710
0.188238 0.513238 0.675737
0.342765 0.505265 0.667765
0.497293 0.497293 0.659793
0.651820 0.489320 0.651820
0.806347 0.481347 0.643848
0.960875 0.473375 0.635875
1.000000 0.465402 0.627903
0.000000 0.664863 0.664863
0.006890 0.656890 0.656890
0.161417 0.648918 0.648918
0.315945 0.640945 0.640945
0.470473 0.632973 0.632973
0.625000 0.625000 0.625000
0.779528 0.617028 0.617028
0.934055 0.609055 0.609055
1.000000 0.601082 0.601082
0.000000 0.800543 0.638043
0.000000 0.792570 0.630070
0.134598 0.784598 0.622097
0.289125 0.776625 0.614125
0.443653 0.768652 0.606152
0.598180 0.760680 0.598180
0.752707 0.752707 0.590207
0.907235 0.744735 0.582235
1.000000 0.736762 0.574263
0.000000 0.936223 0.611223
0.000000 0.928250 0.603250
0.107777 0.920278 0.595278
0.262305 0.912305 0.587305
0.416832 0.904332 0.579333
0.571360 0.896360 0.571360
0.725888 0.888387 0.563388
0.880415 0.880415 0.555415
1.000000 0.872443 0.547443
0.000000 1.000000 0.584403
0.000000 1.000000 0.576430
0.080958 1.000000 0.568458
0.235485 1.000000 0.560485
0.390013 1.000000 0.552512
0.544540 1.000000 0.544540
0.699068 1.000000 0.536568
0.853595 1.000000 0.528595
1.000000 1.000000 0.520622
0.000000 0.000000 0.958755
0.138283 0.000000 0.950782
0.292810 0.000000 0.942810
0.447337 0.000000 0.934837
0.601865 0.000000 0.926865
0.756393 0.000000 0.918893
0.910920 0.000000 0.910920
1.000000 0.000000 0.902948
1.000000 0.000000 0.894975
0.000000 0.119435 0.931935
0.111462 0.111462 0.923963
0.265990 0.103490 0.915990
0.420517 0.095518 0.908018
0.575045 0.087545 0.900045
0.729572 0.079572 0.892073
0.884100 0.071600 0.884100
1.000000 0.063628 0.876128
1.000000 0.055655 0.868155
0.000000 0.255115 0.905115
0.084642 0.247142 0.897143
0.239170 0.239170 0.889170
0.393697 0.231198 0.881197
0.548225 0.223225 0.873225
0.702753 0.215252 0.865252
0.857280 0.207280 0.857280
1.000000 0.199307 0.849307
1.000000 0.191335 0.841335
0.000000 0.390795 0.878295
0.057822 0.382823 0.870322
0.212350 0.374850 0.862350
0.366878 0.366878 0.854378
0.521405 0.358905 0.846405
0.675933 0.350932 0.838433
0.830460 0.342960 0.830460
0.984988 0.334987 0.822488
1.000000 0.327015 0.814515
0.000000 0.526475 0.851475
0.031002 0.518502 0.843503
0.185530 0.510530 0.835530
0.340058 0.502557 0.827557
0.494585 0.494585 0.819585
0.649112 0.486613 0.811613
0.803640 0.478640 0.803640
0.958168 0.470668 0.795667
1.000000 0.462695 0.787695
0.000000 0.662155 0.824655
0.004182 0.654183 0.816682
0.158710 0.646210 0.808710
0.313238 0.638238 0.800737
0.467765 0.630265 0.792765
0.622293 0.622293 0.784793
0.776820 0.614320 0.776820
0.931347 0.606348 0.768848
1.000000 0.598375 0.760875
0.000000 0.797835 0.797835
0.000000 0.789863 0.789863
0.131890 0.781890 0.781890
0.286417 0.773918 0.773918
0.440945 0.765945 0.765945
0.595472 0.757972 0.757972
0.750000 0.750000 0.750000
0.904528 0.742027 0.742027
1.000000 0.734055 0.734055
0.000000 0.933515 0.771015
0.000000 0.925543 0.763043
0.105070 0.917570 0.755070
0.259598 0.909598 0.747097
0.414125 0.901625 0.739125
0.568653 0.893652 0.731152
0.723180 0.885680 0.723180
0.877707 0.877707 0.715207
1.000000 0.869735 0.707235
0.000000 1.000000 0.744195
0.000000 1.000000 0.736223
0.078250 1.000000 0.728250
0.232777 1.000000 0.720278
0.387305 1.000000 0.712305
0.541832 1.000000 0.704333
0.696360 1.000000 0.696360
0.850888 1.000000 0.688387
1.000000 1.000000 0.680415
0.000000 0.000000 1.000000
0.135575 0.000000 1.000000
0.290102 0.000000 1.000000
0.444630 0.000000 1.000000
0.599158 0.000000 1.000000
0.753685 0.000000 1.000000
0.908212 0.000000 1.000000
1.000000 0.000000 1.000000
1.000000 0.000000 1.000000
0.000000 0.116728 1.000000
0.108755 0.108755 1.000000
0.263282 0.100782 1.000000
0.417810 0.092810 1.000000
0.572337 0.084838 1.000000
0.726865 0.076865 1.000000
0.881393 0.068892 1.000000
1.000000 0.060920 1.000000
1.000000 0.052947 1.000000
0.000000 0.252408 1.000000
0.081935 0.244435 1.000000
0.236463 0.236463 1.000000
0.390990 0.228490 1.000000
0.545517 0.220518 1.000000
0.700045 0.212545 1.000000
0.854572 0.204572 1.000000
1.000000 0.196600 1.000000
1.000000 0.188628 1.000000
0.000000 0.388088 1.000000
0.055115 0.380115 1.000000
0.209642 0.372142 1.000000
0.364170 0.364170 1.000000
0.518698 0.356198 1.000000
0.673225 0.348225 0.998225
0.827753 0.340253 0.990252
0.982280 0.332280 0.982280
1.000000 0.324307 0.974307
0.000000 0.523768 1.000000
0.028295 0.515795 1.000000
0.182822 0.507823 0.995322
0.337350 0.499850 0.987350
0.491878 0.491878 0.979378
0.646405 0.483905 0.971405
0.800933 0.475932 0.963433
0.955460 0.467960 0.955460
1.000000 0.459987 0.947488
0.000000 0.659447 0.984448
0.001475 0.651475 0.976475
0.156002 0.643502 0.968503
0.310530 0.635530 0.960530
0.465058 0.627557 0.952558
0.619585 0.619585 0.944585
0.774112 0.611613 0.936613
0.928640 0.603640 0.928640
1.000000 0.595668 0.920667
0.000000 0.795127 0.957628
0.000000 0.787155 0.949655
0.129182 0.779183 0.941682
0.283710 0.771210 0.933710
0.438238 0.763238 0.925737
0.592765 0.755265 0.917765
0.747293 0.747293 0.909793
0.901820 0.739320 0.901820
1.000000 0.731348 0.893848
0.000000 0.930808 0.930808
0.000000 0.922835 0.922835
0.102363 0.914863 0.914863
0.256890 0.906890 0.906890
0.411417 0.898918 0.898918
0.565945 0.890945 0.890945
0.720473 0.882973 0.882973
0.875000 0.875000 0.875000
1.000000 0.867028 0.867028
0.000000 1.000000 0.903988
0.000000 1.000000 0.896015
0.075542 1.000000 0.888043
0.230070 1.000000 0.880070
0.384598 1.000000 0.872098
0.539125 1.000000 0.864125
0.693653 1.000000 0.856152
0.848180 1.000000 0.848180
1.000000 1.000000 0.840207
0.000000 0.000000 1.000000
0.132867 0.000000 1.000000
0.287395 0.000000 1.000000
0.441922 0.000000 1.000000
0.596450 0.000000 1.000000
0.750977 0.000000 1.000000
0.905505 0.000000 1.000000
1.000000 0.000000 1.000000
1.000000 0.000000 1.000000
0.000000 0.114020 1.000000
0.106048 0.106048 1.000000
0.260575 0.098075 1.000000
0.415103 0.090103 1.000000
0.569630 0.082130 1.000000
0.724158 0.074157 1.000000
0.878685 0.066185 1.000000
1.000000 0.058213 1.000000
1.000000 0.050240 1.000000
0.000000 0.249700 1.000000
0.079228 0.241728 1.000000
0.233755 0.233755 1.000000
0.388282 0.225782 1.000000
0.542810 0.217810 1.000000
0.697337 0.209837 1.000000
0.851865 0.201865 1.000000
1.000000 0.193893 1.000000
1.000000 0.185920 1.000000
0.000000 0.385380 1.000000
0.052407 0.377408 1.000000
0.206935 0.369435 1.000000
0.361463 0.361463 1.000000
0.515990 0.353490 1.000000
0.670517 0.345518 1.000000
0.825045 0.337545 1.000000
0.979572 0.329572 1.000000
1.000000 0.321600 1.000000
0.000000 0.521060 1.000000
0.025587 0.513088 1.000000
0.180115 0.505115 1.000000
0.334642 0.497142 1.000000
0.489170 0.489170 1.000000
0.643698 0.481198 1.000000
0.798225 0.473225 1.000000
0.952753 0.465252 1.000000
1.000000 0.457280 1.000000
0.000000 0.656740 1.000000
0.000000 0.648767 1.000000
0.153295 0.640795 1.000000
0.307822 0.632822 1.000000
0.462350 0.624850 1.000000
0.616877 0.616877 1.000000
0.771405 0.608905 1.000000
0.925933 0.600932 1.000000
1.000000 0.592960 1.000000
0.000000 0.792420 1.000000
0.000000 0.784447 1.000000
0.126475 0.776475 1.000000
0.281002 0.768502 1.000000
0.435530 0.760530 1.000000
0.590057 0.752557 1.000000
0.744585 0.744585 1.000000
0.899112 0.736613 1.000000
1.000000 0.728640 1.000000
0.000000 0.928100 1.000000
0.000000 0.920127 1.000000
0.099655 0.912155 1.000000
0.254182 0.904183 1.000000
0.408710 0.896210 1.000000
0.563238 0.888238 1.000000
0.717765 0.880265 1.000000
0.872293 0.872293 1.000000
1.000000 0.864320 1.000000
0.000000 1.000000 1.000000
0.000000 1.000000 1.000000
0.072835 1.000000 1.000000
0.227363 1.000000 1.000000
0.381890 1.000000 1.000000
0.536417 1.000000 1.000000
0.690945 1.000000 1.000000
0.845472 1.000000 1.000000
1.000000 1.000000 1.000000
